X:1
T:Sherele
Z:Jack Campin, http://www.campin.me.uk
F:http://www.campin.me.uk/Music/EdinburghKlezmer.abc
M:4/4
L:1/8
Q:1/4=120
K:DPhr
  DC=B,C D2E2 | D8                    |\
 ^FEDE   F2G2 | A8                    |
  ABc2   c2c2 | cB/c/ BA/B/  AG/A/ G^F|\
 ^FGA2   A2A2 |
                AG/A/ G^F/G/ FE/F/ ED |\
  C=B,CD DG^FE| D8                   :|
  G4     B4   |_d8                    |\
  dccB   BAAG | A8                    |
  A3B    c3d  | e8                    |\
  eddc   cBBA | G8                   :|
Q:1/4=136
  AG^F2  FED2 | DG   ^FG    .A2   .d2 |\
  AG^F2  FED2 | C2    G2     D4      :|

